X:1
T:En esperant en cette
T:Claudin de Sermisy
T:Source : Chansons musicales eslevées de plusieur livres---Paris-P.Attaignant---1535/1536. Editor : André Vierendeels (01/05/18) Notes : Original clefs : C1, C3, C4, F4 Original note values have been halved Editorial accidentals above the staff Square bracket indicates ligature 
T:En esperant en cette
T:©
T:©
T:©
C:Claudin de Sermisy
Z:©
%%score [ 1 2 3 4 ]
L:1/8
Q:1/4=120
M:2/2
K:C
V:1 treble nm="Soprano" snm="S"
V:2 treble nm="Alto" snm="A"
V:3 treble-8 nm="Tenor" snm="T"
V:4 bass nm="Bass" snm="B"
V:1
 A8 | A4 AGAB | c4 z2 c2 | c2 c2 B2 c2 | G3 A Bcdc | BA A4 G2 | A4 z2 c2 | cBAG A2 A2 | %8
w: En|e- spe- * * *|rant en|ce- ste lon- gue'at-|ten- * * * * *||te, le|bien _ _ _ _ heu-|
 G2 G2 A2 A2 | G2 FE F2 F2 | EFGA Bc d2- | dcBA B2 A2- | AG G4 F2 | G4 z2 E2 | E4 F4 | %15
w: reulx et de- si-|* * * re re-|veoir , _ _ _ _ _|_ _ _ _ _ _||* ie|n'ou- bli-|
 E2 E2 A2 A2 | G2 FE F2 F2 | E2 c2 d2 e2 | d2 c4 B2 | c4 z4 | A8 | A4 AGAB | c4 z2 c2 | %23
w: ray la cous- tu-|* * * me deb-|voir, la cous- tu-|me deb- *|voir,|qui|me ren- * * *|dra mal-|
 c2 c2 B2 c2 | G3 A Bcdc | BA A4 G2 | A4 z4 | A8 | A4 AGAB | c4 z2 c2 | c2 c2 B2 c2 | G3 A Bcdc | %32
w: heu- reu- se'ou con-|ten- * * * * *||te,-|qui|me ren- * * *|dra mal-|heu- reu- se'ou con-|ten- * * * * *|
 BA A4 G2 | A8 |] %34
w: |te.|
V:2
 E8 | E4 F4 | G4 z2 G2 | G2 G2 G4 | E4 D2 F2- | F2 D2 E4 |"^#" C2 E2 E3 D | EF G4 F2 | %8
w: En|e- spe-|rant en|ces- te lon-|gue'at- ten- *||te, le bien _|_ _ _ heu-|
 E2 E2 E2 E2 | D2 C4 B,2 | CDEF G2 G2- | G2 G2 D2 F2 | E2 C2 D4 | B,4 z2 C2 | C4 C4 | C2 C2 E2 E2 | %16
w: reulx et de- si-|re re- *|voir, _ _ _ _ et|_ de- si- re|re- * *|voir, ie|n'ou- bli-|ray la cous- tu-|
 E4 D4 | B,2 E2 D2 G2 | G2 F2 G4 | E4 z4 | F8 | F4 F4 | G4 z2 G2 | G2 G2 G4 | E4 D2 F2- | %25
w: me deb-|voir, la cous- tu-|me deb- *|voir,|qui|me ren-|dra mal-|heu- reu- se'ou|con- ten- *|
 F2 D2 E4 | C4 z4 | F8 | F4 F4 | G4 z2 G2 | G2 G2 G4 | E4 D2 F2- | F2 D2 E4 | C8 |] %34
w: |te,|qui|me ren-|dra mal-|heu- reu- se'ou|con- ten- *||te.|
V:3
 A8 | c4 d4 | e4 z2 e2 | e2 e2 d2 e2- | ed c2 B2 A2 | dcBA B4 | A2 c2 c3 B | c2 e2 d4 | B4 c2 c2 | %9
w: En|e- spe-|rant en|ce- ste lon- gue'at-|* * ten- * *||te, le bien- *|* heu- reux|et de- si|
 B2 G4 F2 | G2 G2 G2 D2 | GABc d3 c | B2 AG A2 A2 | G4 z2 G2 | G4 A4 | G2 G2 c2 c2 | c4 A4 | %17
w: re re- *|veoir et de- si-|re _ _ _ _ _|_ _ _ _ re-|veoir, ie|n'ou- bli-|ray la cous- tu-|me deb-|
 G4 z2 G2 | B2 c2 d2 d2 | c4 z4 | c8 | c4 d4 | e4 z2 e2 | e2 e2 d2 e2- | ed c2 B2 A2 | dcBA B4 | %26
w: voir, la|cous- tu- me deb-|voir,|qui|me ren-|dra mal-|heu- reu- se'ou con-|* * ten- * *||
 A4 z4 | c8 | c4 d4 | e4 z2 e2 | e2 e2 d2 e2- | ed c2 B2 A2 | dcBA B4 | A8 |] %34
w: te,|qui|me ren-|dra mal-|heu- reu- se'ou con-|* * ten- * *||te.|
V:4
 A,,8 | A,,4 D,4 | C,4 z2 C,2 | C,2 C,2 G,2 C,2- | C,D,E,F, G,2 D,2- | D,E, F,2 E,4 | A,,8 | %7
w: En|e- spe-|rant en|ces- te lon- gue'at-|* * * * ten- *||te,|
 z4 z2 D,2 | E,2 E,2 A,,2 A,,2 | B,,2 C,2 D,2 D,2 | C,4 G,,4 | z2 G,2 G,2 D,2 | E,4 D,4 | %13
w: le|bien heu- reulx et|de- si- re re-|voir, _|et de- si-|re re-|
 G,,4 z2 C,2 | C,4 F,4 | C,2 C,2 A,,2 A,,2 | C,4 D,4 | E,4 G,2 C,2 | G,2 A,2 G,2 G,2 | C,4 z4 | %20
w: veoir, ie|n'ou- bli-|ray la cous- um-|me deb-|voir, la cous-|tu- * me deb-|voir,|
 F,8 | F,4 D,4 | C,4 z2 C,2 | C,2 C,2 G,2 C,2- | C,D,E,F, G,2 D,2- | D,E, F,2 E,4 | A,,4 z4 | F,8 | %28
w: qui|me ren-|dra mal-|heu- reu- se'ou con-|* * * * ten- *||te,|qui|
 F,4 D,4 |"^#" C,4 z2 C,2 | C,2 C,2 G,2 C,2- | C,D,E,F, G,2 D,2- | D,E, F,2 E,4 | A,,8 |] %34
w: me ren-|dra mal-|heu- reu- se'ou con-|* * * * ten- *||te.|

